modules/coreui-icons-free/icons/gem.svg

<!-- Generated by IcoMoon.io -->
<svg version="1.1" xmlns="http://www.w3.org/2000/svg" width="24" height="24" viewBox="0 0 24 24">
<title>gem</title>
<path d="M19.151 2.25h-14.303l-4.099 6.148v1.162l8.598 12.94h5.304l8.598-12.94v-1.162zM18.349 3.75l2.972 4.458h-5.021l-1.403-4.458zM10.675 3.75h2.65l1.403 4.458h-5.455zM5.651 3.75h3.451l-1.403 4.458h-5.021zM10.152 21l-7.503-11.292h5.006l2.648 11.292zM11.844 21l-2.648-11.292h5.608l-2.648 11.292zM13.848 21h-0.152l2.648-11.292h5.006z"></path>
</svg>

<svg xmlns="http://www.w3.org/2000/svg" width="24" height="24" viewBox="0 0 24 24"><path d="M19.151 2.25H4.848L.749 8.398V9.56L9.347 22.5h5.304l8.598-12.94V8.398zm-.802 1.5l2.972 4.458H16.3L14.897 3.75zm-7.674 0h2.65l1.403 4.458H9.273zm-5.024 0h3.451L7.699 8.208H2.678zM10.152 21L2.649 9.708h5.006L10.303 21zm1.692 0L9.196 9.708h5.608L12.156 21zm2.004 0h-.152l2.648-11.292h5.006z"/></svg>
